X:70
T:O'er the Moor Among the Hether
S:Petrie's Third Collection of Strathspey Reels and Country Dances &c.
Z:Steve Wyrick , 7/31/05
N:Petrie's Third Collection, page 26
L:1/8
M:C
R:Reel
K:G
(DGGB) GBGD|(EAAB) ABAG|GABc degd|(e/f/g) (dB) ABAG:|
|:(Ggga) gagd|(eaab) abag|(b/a/g) (a/g/e) dega|gedB ABAG:|]
